dist/img/phone.svg

<svg width="29" height="29" viewBox="0 0 29 29" fill="none" xmlns="http://www.w3.org/2000/svg">
<path d="M17.4351 20.2669C17.4351 20.2669 19.7127 18.963 20.309 18.6497C20.9035 18.3353 21.5195 18.256 21.8936 18.4843C22.46 18.8308 27.2166 21.995 27.6171 22.2751C28.0176 22.5558 28.2105 23.3573 27.6598 24.1426C27.1114 24.9279 24.5812 28.0329 23.5091 27.9997C22.4353 27.9649 17.9706 27.867 9.55154 19.4457C1.13416 11.0272 1.0346 6.56139 1.00028 5.48756C0.965969 4.4143 4.07102 1.88357 4.85628 1.33456C5.64267 0.786113 6.44537 0.992554 6.72437 1.37843C7.04163 1.81775 10.1692 6.55914 10.5134 7.10253C10.7491 7.47378 10.6625 8.09311 10.3481 8.68824C10.0353 9.2845 8.73141 11.5621 8.73141 11.5621C8.73141 11.5621 9.65055 13.1298 12.759 16.2377C15.868 19.3461 17.4351 20.2669 17.4351 20.2669Z" stroke="#D1327F" stroke-miterlimit="10"/>
</svg>

<svg width="29" height="29" fill="none" xmlns="http://www.w3.org/2000/svg"><path d="M17.435 20.267s2.278-1.304 2.874-1.617c.595-.315 1.21-.394 1.585-.166.566.347 5.323 3.511 5.723 3.791.4.28.593 1.082.043 1.868-.549.785-3.079 3.89-4.15 3.857-1.075-.035-5.54-.133-13.958-8.554C1.134 11.027 1.035 6.56 1 5.488.966 4.414 4.071 1.884 4.856 1.335c.787-.549 1.59-.342 1.868.043.318.44 3.445 5.181 3.79 5.725.235.37.149.99-.166 1.585-.313.596-1.617 2.874-1.617 2.874s.92 1.568 4.028 4.676c3.109 3.108 4.676 4.029 4.676 4.029Z" stroke="#D1327F" stroke-miterlimit="10"/></svg>
